src/ipa/rpi/vc4/data/imx585.json
{
    "version": 2.0,
    "target": "bcm2835",
    "algorithms": [
        {
            "rpi.black_level":
            {
                "black_level": 3200
            }
        },
        {
            "rpi.dpc": { }
        },
        {
            "rpi.lux":
            {
                "reference_shutter_speed": 58061,
                "reference_gain": 1.99,
                "reference_aperture": 1.0,
                "reference_lux": 1100,
                "reference_Y": 8268
            }
        },
        {
            "rpi.noise":
            {
                "reference_constant": 6,
                "reference_slope": 1.614
            }
        },
        {
            "rpi.geq":
            {
                "offset": 364,
                "slope": 0.0061
            }
        },
        {
            "rpi.sdn": { }
        },
        {
            "rpi.awb":
            {
                "priors": [
                    {
                        "lux": 0,
                        "prior":
                        [
                            2000, 1.0,
                            3000, 0.0,
                            13000, 0.0
                        ]
                    },
                    {
                        "lux": 800,
                        "prior":
                        [
                            2000, 0.0,
                            6000, 2.0,
                            13000, 2.0
                        ]
                    },
                    {
                        "lux": 1500,
                        "prior":
                        [
                            2000, 0.0,
                            4000, 1.0,
                            6000, 6.0,
                            6500, 7.0,
                            7000, 1.0,
                            13000, 1.0
                        ]
                    }
                ],
                "modes":
                {
                    "auto":
                    {
                        "lo": 2500,
                        "hi": 8000
                    },
                    "incandescent":
                    {
                        "lo": 2500,
                        "hi": 3000
                    },
                    "tungsten":
                    {
                        "lo": 3000,
                        "hi": 3500
                    },
                    "fluorescent":
                    {
                        "lo": 4000,
                        "hi": 4700
                    },
                    "indoor":
                    {
                        "lo": 3000,
                        "hi": 5000
                    },
                    "daylight":
                    {
                        "lo": 5500,
                        "hi": 6500
                    },
                    "cloudy":
                    {
                        "lo": 7000,
                        "hi": 8600
                    }
                },
                "bayes": 1,
                "ct_curve":
                [
                    2220.0, 1.1476, 0.2153,
                    5250.0, 0.6343, 0.4928,
                    8450.0, 0.5082, 0.7584,
                    8700.0, 0.5056, 0.7658,
                    9035.0, 0.4952, 0.7963,
                    9400.0, 0.4909, 0.8092
                ],
                "sensitivity_r": 1.0,
                "sensitivity_b": 1.0,
                "transverse_pos": 0.01241,
                "transverse_neg": 0.01412
            }
        },
        {
            "rpi.agc":
            {
                "metering_modes":
                {
                    "centre-weighted":
                    {
                        "weights":
                        [
                            3, 3, 3, 2, 2, 2, 2, 1, 1, 1, 1, 0, 0, 0, 0
                        ]
                    },
                    "spot":
                    {
                        "weights":
                        [
                            2, 1, 1, 0, 0, 0, 0, 0, 0, 0, 0, 0, 0, 0, 0
                        ]
                    },
                    "matrix":
                    {
                        "weights":
                        [
                            1, 1, 1, 1, 1, 1, 1, 1, 1, 1, 1, 1, 1, 1, 1
                        ]
                    }
                },
                "exposure_modes":
                {
                    "normal":
                    {
                        "shutter": [ 100, 10000, 30000, 60000, 120000 ],
                        "gain": [ 1.0, 2.0, 4.0, 6.0, 6.0 ]
                    },
                    "short":
                    {
                        "shutter": [ 100, 5000, 10000, 20000, 120000 ],
                        "gain": [ 1.0, 2.0, 4.0, 6.0, 6.0 ]
                    }
                },
                "constraint_modes":
                {
                    "normal": [
                        {
                            "bound": "LOWER",
                            "q_lo": 0.98,
                            "q_hi": 1.0,
                            "y_target":
                            [
                                0, 0.5,
                                1000, 0.5
                            ]
                        }
                    ],
                    "highlight": [
                        {
                            "bound": "LOWER",
                            "q_lo": 0.98,
                            "q_hi": 1.0,
                            "y_target":
                            [
                                0, 0.5,
                                1000, 0.5
                            ]
                        },
                        {
                            "bound": "UPPER",
                            "q_lo": 0.98,
                            "q_hi": 1.0,
                            "y_target":
                            [
                                0, 0.8,
                                1000, 0.8
                            ]
                        }
                    ]
                },
                "y_target":
                [
                    0, 0.16,
                    1000, 0.165,
                    10000, 0.17
                ]
            }
        },
        {
            "rpi.alsc":
            {
                "omega": 1.3,
                "n_iter": 100,
                "luminance_strength": 0.7
            }
        },
        {
            "rpi.contrast":
            {
                "ce_enable": 1,
                "gamma_curve":
                [
                    0, 0,
                    1024, 5040,
                    2048, 9338,
                    3072, 12356,
                    4096, 15312,
                    5120, 18051,
                    6144, 20790,
                    7168, 23193,
                    8192, 25744,
                    9216, 27942,
                    10240, 30035,
                    11264, 32005,
                    12288, 33975,
                    13312, 35815,
                    14336, 37600,
                    15360, 39168,
                    16384, 40642,
                    18432, 43379,
                    20480, 45749,
                    22528, 47753,
                    24576, 49621,
                    26624, 51253,
                    28672, 52698,
                    30720, 53796,
                    32768, 54876,
                    36864, 57012,
                    40960, 58656,
                    45056, 59954,
                    49152, 61183,
                    53248, 62355,
                    57344, 63419,
                    61440, 64476,
                    65535, 65535
                ]
            }
        },
        {
            "rpi.ccm":
            {
                "ccms": [
                    {
                        "ct": 2200,
                        "ccm":
                        [
                            1.78344, -0.41512, -0.36832,
                            -0.73271, 1.98507, -0.25235,
                            0.31946, -1.60818, 2.28872
                        ]
                    },
                    {
                        "ct": 2220,
                        "ccm":
                        [
                            1.81603, -0.42304, -0.39299,
                            -0.74706, 2.01193, -0.26487,
                            0.30873, -1.61788, 2.30915
                        ]
                    },
                    {
                        "ct": 5250,
                        "ccm":
                        [
                            1.73138, -0.58101, -0.15037,
                            -0.36908, 1.67814, -0.30906,
                            0.07966, -0.69095, 1.61129
                        ]
                    },
                    {
                        "ct": 8450,
                        "ccm":
                        [
                            0.95971, 0.09589, -0.05561,
                            -0.01858, 1.17235, -0.15378,
                            0.05423, -0.18048, 1.12625
                        ]
                    },
                    {
                        "ct": 8700,
                        "ccm":
                        [
                            0.97431, 0.06891, -0.04322,
                            0.04819, 1.07294, -0.12114,
                            0.05372, -0.20001, 1.14629
                        ]
                    },
                    {
                        "ct": 9035,
                        "ccm":
                        [
                            0.96617, 0.08819, -0.05436,
                            -0.06021, 1.24404, -0.18383,
                            0.03231, -0.18608, 1.15377
                        ]
                    },
                    {
                        "ct": 9400,
                        "ccm":
                        [
                            0.94719, 0.12629, -0.07348,
                            -0.18155, 1.42681, -0.24526,
                            0.02636, -0.16392, 1.13756
                        ]
                    }
                ]
            }
        },
        {
            "rpi.sharpen": { }
        }
    ]
}