src/ipa/rpi/pisp/data/imx294.json
{
    "version": 2.0,
    "target": "pisp",
    "algorithms": [
        {
            "rpi.black_level": {
                "black_level": 3200
            }
        },
        {
            "rpi.awb": {
                "priors": [
                    {
                        "lux": 0,
                        "prior": [
                            2000,
                            1.0,
                            3000,
                            0.0,
                            13000,
                            0.0
                        ]
                    },
                    {
                        "lux": 800,
                        "prior": [
                            2000,
                            0.0,
                            6000,
                            2.0,
                            13000,
                            2.0
                        ]
                    },
                    {
                        "lux": 1500,
                        "prior": [
                            2000,
                            0.0,
                            4000,
                            1.0,
                            6000,
                            6.0,
                            6500,
                            7.0,
                            7000,
                            1.0,
                            13000,
                            1.0
                        ]
                    }
                ],
                "modes": {
                    "auto": {
                        "lo": 2500,
                        "hi": 7700
                    },
                    "incandescent": {
                        "lo": 2500,
                        "hi": 3000
                    },
                    "tungsten": {
                        "lo": 3000,
                        "hi": 3500
                    },
                    "fluorescent": {
                        "lo": 4000,
                        "hi": 4700
                    },
                    "indoor": {
                        "lo": 3000,
                        "hi": 5000
                    },
                    "daylight": {
                        "lo": 5500,
                        "hi": 6500
                    },
                    "cloudy": {
                        "lo": 7000,
                        "hi": 8000
                    }
                },
                "bayes": 1,
                "ct_curve": [
                    2200.0,
                    1.3632,
                    0.2581,
                    3000.0,
                    1.232,
                    0.3201,
                    4000.0,
                    1.068,
                    0.3976,
                    5000.0,
                    0.904,
                    0.4751,
                    5500.0,
                    0.822,
                    0.5139,
                    6000.0,
                    0.7874,
                    0.5308,
                    6500.0,
                    0.7529,
                    0.5476,
                    7000.0,
                    0.7183,
                    0.5645,
                    7500.0,
                    0.6837,
                    0.5814,
                    8000.0,
                    0.6492,
                    0.5982,
                    9000.0,
                    0.58,
                    0.632,
                    10000.0,
                    0.5109,
                    0.6657
                ],
                "sensitivity_r": 1.0,
                "sensitivity_b": 1.0,
                "transverse_pos": 0.01,
                "transverse_neg": 0.01
            }
        },
        {
            "rpi.agc": {
                "metering_modes": {
                    "centre-weighted": {
                        "weights": [
                            0,
                            0,
                            1,
                            1,
                            1,
                            1,
                            1,
                            1,
                            1,
                            1,
                            1,
                            1,
                            1,
                            0,
                            0,
                            0,
                            1,
                            1,
                            1,
                            1,
                            1,
                            2,
                            2,
                            2,
                            1,
                            1,
                            1,
                            1,
                            1,
                            0,
                            1,
                            1,
                            1,
                            1,
                            2,
                            2,
                            2,
                            2,
                            2,
                            2,
                            2,
                            1,
                            1,
                            1,
                            1,
                            1,
                            1,
                            2,
                            2,
                            2,
                            2,
                            2,
                            2,
                            2,
                            2,
                            2,
                            2,
                            2,
                            1,
                            1,
                            1,
                            1,
                            2,
                            2,
                            2,
                            2,
                            3,
                            3,
                            3,
                            2,
                            2,
                            2,
                            2,
                            1,
                            1,
                            1,
                            1,
                            2,
                            2,
                            2,
                            3,
                            3,
                            3,
                            3,
                            3,
                            2,
                            2,
                            2,
                            1,
                            1,
                            1,
                            1,
                            2,
                            2,
                            3,
                            3,
                            3,
                            4,
                            3,
                            3,
                            3,
                            2,
                            2,
                            1,
                            1,
                            1,
                            1,
                            2,
                            2,
                            3,
                            3,
                            4,
                            4,
                            4,
                            3,
                            3,
                            2,
                            2,
                            1,
                            1,
                            1,
                            1,
                            2,
                            2,
                            3,
                            3,
                            3,
                            4,
                            3,
                            3,
                            3,
                            2,
                            2,
                            1,
                            1,
                            1,
                            1,
                            2,
                            2,
                            2,
                            3,
                            3,
                            3,
                            3,
                            3,
                            2,
                            2,
                            2,
                            1,
                            1,
                            1,
                            1,
                            2,
                            2,
                            2,
                            2,
                            3,
                            3,
                            3,
                            2,
                            2,
                            2,
                            2,
                            1,
                            1,
                            1,
                            1,
                            2,
                            2,
                            2,
                            2,
                            2,
                            2,
                            2,
                            2,
                            2,
                            2,
                            2,
                            1,
                            1,
                            1,
                            1,
                            1,
                            1,
                            2,
                            2,
                            2,
                            2,
                            2,
                            2,
                            2,
                            1,
                            1,
                            1,
                            1,
                            0,
                            1,
                            1,
                            1,
                            1,
                            1,
                            2,
                            2,
                            2,
                            1,
                            1,
                            1,
                            1,
                            1,
                            0,
                            0,
                            0,
                            1,
                            1,
                            1,
                            1,
                            1,
                            1,
                            1,
                            1,
                            1,
                            1,
                            1,
                            0,
                            0
                        ]
                    }
                },
                "exposure_modes": {
                    "normal": {
                        "shutter": [
                            100,
                            15000,
                            30000,
                            60000,
                            120000
                        ],
                        "gain": [
                            1.0,
                            2.0,
                            3.0,
                            4.0,
                            6.0
                        ]
                    }
                },
                "constraint_modes": {
                    "normal": [
                        {
                            "bound": "LOWER",
                            "q_lo": 0.98,
                            "q_hi": 1.0,
                            "y_target": [
                                0,
                                0.4,
                                1000,
                                0.4
                            ]
                        }
                    ],
                    "highlight": [
                        {
                            "bound": "LOWER",
                            "q_lo": 0.98,
                            "q_hi": 1.0,
                            "y_target": [
                                0,
                                0.4,
                                1000,
                                0.4
                            ]
                        },
                        {
                            "bound": "UPPER",
                            "q_lo": 0.99,
                            "q_hi": 1.0,
                            "y_target": [
                                0,
                                0.4,
                                1000,
                                0.4
                            ]
                        }
                    ]
                },
                "y_target": [
                    0,
                    0.16,
                    1000,
                    0.165,
                    10000,
                    0.17
                ]
            }
        },
        {
            "rpi.ccm": {
                "ccms": [
                    {
                        "ct": 2200,
                        "ccm": [
                            1.83906,
                            -0.48807,
                            -0.35099,
                            -0.69511,
                            2.00405,
                            -0.30894,
                            0.32739,
                            -1.57065,
                            2.24325
                        ]
                    },
                    {
                        "ct": 5230,
                        "ccm": [
                            1.74794,
                            -0.61535,
                            -0.13259,
                            -0.33945,
                            1.71105,
                            -0.37159,
                            0.06123,
                            -0.65968,
                            1.59845
                        ]
                    },
                    {
                        "ct": 7550,
                        "ccm": [
                            1.79298,
                            -0.65088,
                            -0.14211,
                            -0.25109,
                            1.65446,
                            -0.40336,
                            -0.00276,
                            -0.45674,
                            1.45951
                        ]
                    },
                    {
                        "ct": 8800,
                        "ccm": [
                            1.82754,
                            -0.68286,
                            -0.14469,
                            -0.23569,
                            1.64738,
                            -0.41168,
                            -0.01803,
                            -0.41033,
                            1.42837
                        ]
                    },
                    {
                        "ct": 10000,
                        "ccm": [
                            1.84445,
                            -0.68089,
                            -0.16356,
                            -0.20829,
                            1.64542,
                            -0.43712,
                            -0.01028,
                            -0.43733,
                            1.44761
                        ]
                    }
                ]
            }
        },
        {
            "rpi.contrast": {
                "ce_enable": 0,
                "gamma_curve": [
                    0,
                    0,
                    1024,
                    5040,
                    2048,
                    9338,
                    3072,
                    12356,
                    4096,
                    15312,
                    5120,
                    18051,
                    6144,
                    20790,
                    7168,
                    23193,
                    8192,
                    25744,
                    9216,
                    27942,
                    10240,
                    30035,
                    11264,
                    32005,
                    12288,
                    33975,
                    13312,
                    35815,
                    14336,
                    37600,
                    15360,
                    39168,
                    16384,
                    40642,
                    18432,
                    43379,
                    20480,
                    45749,
                    22528,
                    47753,
                    24576,
                    49621,
                    26624,
                    51253,
                    28672,
                    52698,
                    30720,
                    53796,
                    32768,
                    54876,
                    36864,
                    57012,
                    40960,
                    58656,
                    45056,
                    59954,
                    49152,
                    61183,
                    53248,
                    62355,
                    57344,
                    63419,
                    61440,
                    64476,
                    65535,
                    65535
                ]
            }
        },
        {
            "rpi.lux": {
                "reference_shutter_speed": 5288,
                "reference_gain": 1.0,
                "reference_aperture": 1.0,
                "reference_lux": 923,
                "reference_Y": 7930
            }
        },
        {
            "rpi.noise": {
                "reference_constant": 0,
                "reference_slope": 2.286
            }
        },
        {
            "rpi.geq": {
                "offset": 187,
                "slope": 0.00518
            }
        },
        {
            "rpi.dpc": {
                "strength": 1
            }
        }
    ]
}