src/ipa/rpi/pisp/data/imx585.json
{
  "version": 2.0,
  "target": "pisp",
  "algorithms": [
    {
      "rpi.black_level": {
        "black_level": 3200,
        "black_level_r": 3301,
        "black_level_g": 3321,
        "black_level_b": 3240
      }
    },
    {
      "rpi.lux": {
        "reference_shutter_speed": 58061,
        "reference_gain": 1.99,
        "reference_aperture": 1.0,
        "reference_lux": 1100,
        "reference_Y": 8268
      }
    },
    {
      "rpi.dpc": {
        "strength": 1
      }
    },
    {
      "rpi.noise": {
        "reference_constant": 0,
        "reference_slope": 1.946
      }
    },
    {
      "rpi.geq": {
        "offset": 217,
        "slope": 0.0069
      }
    },
    {
      "rpi.denoise": {
        "normal": {
          "sdn": {
            "deviation": 0.6,
            "strength": 0.95,
            "deviation2": 3.2,
            "deviation_no_tdn": 3.2,
            "strength_no_tdn": 0.95
          },
          "cdn": {
            "deviation": 200,
            "strength": 0.3
          },
          "tdn": {
            "deviation": 1.0,
            "threshold": 0.05
          }
        },
        "hdr": {
          "sdn": {
            "deviation": 0.6,
            "strength": 0.95,
            "deviation2": 3.2,
            "deviation_no_tdn": 3.2,
            "strength_no_tdn": 0.95
          },
          "cdn": {
            "deviation": 200,
            "strength": 0.3
          },
          "tdn": {
            "deviation": 1.3,
            "threshold": 0.1
          }
        },
        "night": {
          "sdn": {
            "deviation": 0.6,
            "strength": 0.95,
            "deviation2": 3.2,
            "deviation_no_tdn": 3.2,
            "strength_no_tdn": 0.95
          },
          "cdn": {
            "deviation": 200,
            "strength": 0.3
          },
          "tdn": {
            "deviation": 1.3,
            "threshold": 0.1
          }
        }
      }
    },
    {
      "rpi.awb": {
        "priors": [
          {
            "lux": 0,
            "prior": [
              2000,
              1.0,
              3000,
              0.0,
              13000,
              0.0
            ]
          },
          {
            "lux": 800,
            "prior": [
              2000,
              0.0,
              6000,
              2.0,
              13000,
              2.0
            ]
          },
          {
            "lux": 1500,
            "prior": [
              2000,
              0.0,
              4000,
              1.0,
              6000,
              6.0,
              6500,
              7.0,
              7000,
              1.0,
              13000,
              1.0
            ]
          }
        ],
        "modes": {
          "auto": {
            "lo": 2500,
            "hi": 7700
          },
          "incandescent": {
            "lo": 2500,
            "hi": 3000
          },
          "tungsten": {
            "lo": 3000,
            "hi": 3500
          },
          "fluorescent": {
            "lo": 4000,
            "hi": 4700
          },
          "indoor": {
            "lo": 3000,
            "hi": 5000
          },
          "daylight": {
            "lo": 5500,
            "hi": 6500
          },
          "cloudy": {
            "lo": 7000,
            "hi": 8000
          }
        },
        "bayes": 1,
        "ct_curve": [
          2200.0,
          1.1536,
          0.2218,
          2760.0,
          0.9366,
          0.2568,
          5250.0,
          0.6231,
          0.4664,
          5450.0,
          0.5695,
          0.5422,
          5710.0,
          0.5603,
          0.5572,
          5790.0,
          0.5583,
          0.5605,
          5840.0,
          0.5538,
          0.5681,
          6130.0,
          0.5369,
          0.5978,
          6290.0,
          0.5278,
          0.6148,
          6380.0,
          0.5243,
          0.6215,
          6430.0,
          0.5214,
          0.6271,
          6480.0,
          0.5191,
          0.6318,
          6545.0,
          0.5181,
          0.6337,
          6600.0,
          0.5159,
          0.6381,
          6650.0,
          0.5134,
          0.6431,
          6700.0,
          0.5119,
          0.6462,
          6760.0,
          0.5109,
          0.6482,
          6830.0,
          0.5096,
          0.6509,
          6890.0,
          0.5063,
          0.6577,
          6940.0,
          0.5062,
          0.6579,
          7010.0,
          0.5055,
          0.6594,
          7060.0,
          0.5032,
          0.6642,
          7110.0,
          0.5013,
          0.6682,
          7220.0,
          0.5003,
          0.6704,
          7270.0,
          0.4987,
          0.6738,
          7325.0,
          0.4967,
          0.6782,
          7430.0,
          0.4931,
          0.6859,
          7480.0,
          0.4914,
          0.6897,
          7580.0,
          0.4899,
          0.6931,
          8450.0,
          0.4896,
          0.6939,
          7960.0,
          0.4824,
          0.7102,
          8020.0,
          0.4806,
          0.7144,
          8080.0,
          0.4782,
          0.7199,
          8150.0,
          0.4775,
          0.7216,
          8310.0,
          0.4747,
          0.7283,
          8370.0,
          0.4721,
          0.7343,
          8530.0,
          0.4676,
          0.7452,
          8670.0,
          0.4656,
          0.7501,
          8720.0,
          0.4645,
          0.7531,
          8770.0,
          0.4631,
          0.7566,
          8840.0,
          0.4626,
          0.7578,
          8950.0,
          0.4611,
          0.7614,
          9025.0,
          0.4585,
          0.7681
        ],
        "sensitivity_r": 1.0,
        "sensitivity_b": 1.0,
        "transverse_pos": 0.02778,
        "transverse_neg": 0.06689
      }
    },
    {
      "rpi.agc": {
        "channels": [
          {
            "comment": "Channel 0 is normal AGC",
            "metering_modes": {
              "centre-weighted": {
                "weights": [
                  0,
                  0,
                  1,
                  1,
                  1,
                  1,
                  1,
                  1,
                  1,
                  1,
                  1,
                  1,
                  1,
                  0,
                  0,
                  0,
                  1,
                  1,
                  1,
                  1,
                  1,
                  2,
                  2,
                  2,
                  1,
                  1,
                  1,
                  1,
                  1,
                  0,
                  1,
                  1,
                  1,
                  1,
                  2,
                  2,
                  2,
                  2,
                  2,
                  2,
                  2,
                  1,
                  1,
                  1,
                  1,
                  1,
                  1,
                  2,
                  2,
                  2,
                  2,
                  2,
                  2,
                  2,
                  2,
                  2,
                  2,
                  2,
                  1,
                  1,
                  1,
                  1,
                  2,
                  2,
                  2,
                  2,
                  3,
                  3,
                  3,
                  2,
                  2,
                  2,
                  2,
                  1,
                  1,
                  1,
                  1,
                  2,
                  2,
                  2,
                  3,
                  3,
                  3,
                  3,
                  3,
                  2,
                  2,
                  2,
                  1,
                  1,
                  1,
                  1,
                  2,
                  2,
                  3,
                  3,
                  3,
                  4,
                  3,
                  3,
                  3,
                  2,
                  2,
                  1,
                  1,
                  1,
                  1,
                  2,
                  2,
                  3,
                  3,
                  4,
                  4,
                  4,
                  3,
                  3,
                  2,
                  2,
                  1,
                  1,
                  1,
                  1,
                  2,
                  2,
                  3,
                  3,
                  3,
                  4,
                  3,
                  3,
                  3,
                  2,
                  2,
                  1,
                  1,
                  1,
                  1,
                  2,
                  2,
                  2,
                  3,
                  3,
                  3,
                  3,
                  3,
                  2,
                  2,
                  2,
                  1,
                  1,
                  1,
                  1,
                  2,
                  2,
                  2,
                  2,
                  3,
                  3,
                  3,
                  2,
                  2,
                  2,
                  2,
                  1,
                  1,
                  1,
                  1,
                  2,
                  2,
                  2,
                  2,
                  2,
                  2,
                  2,
                  2,
                  2,
                  2,
                  2,
                  1,
                  1,
                  1,
                  1,
                  1,
                  1,
                  2,
                  2,
                  2,
                  2,
                  2,
                  2,
                  2,
                  1,
                  1,
                  1,
                  1,
                  0,
                  1,
                  1,
                  1,
                  1,
                  1,
                  2,
                  2,
                  2,
                  1,
                  1,
                  1,
                  1,
                  1,
                  0,
                  0,
                  0,
                  1,
                  1,
                  1,
                  1,
                  1,
                  1,
                  1,
                  1,
                  1,
                  1,
                  1,
                  0,
                  0
                ]
              },
              "spot": {
                "weights": [
                  0,
                  0,
                  0,
                  0,
                  0,
                  0,
                  0,
                  0,
                  0,
                  0,
                  0,
                  0,
                  0,
                  0,
                  0,
                  0,
                  0,
                  0,
                  0,
                  0,
                  0,
                  0,
                  0,
                  0,
                  0,
                  0,
                  0,
                  0,
                  0,
                  0,
                  0,
                  0,
                  0,
                  0,
                  0,
                  0,
                  0,
                  0,
                  0,
                  0,
                  0,
                  0,
                  0,
                  0,
                  0,
                  0,
                  0,
                  0,
                  0,
                  0,
                  0,
                  0,
                  0,
                  0,
                  0,
                  0,
                  0,
                  0,
                  0,
                  0,
                  0,
                  0,
                  0,
                  0,
                  0,
                  0,
                  0,
                  0,
                  0,
                  0,
                  0,
                  0,
                  0,
                  0,
                  0,
                  0,
                  0,
                  0,
                  0,
                  0,
                  0,
                  0,
                  1,
                  0,
                  0,
                  0,
                  0,
                  0,
                  0,
                  0,
                  0,
                  0,
                  0,
                  0,
                  0,
                  0,
                  1,
                  2,
                  1,
                  0,
                  0,
                  0,
                  0,
                  0,
                  0,
                  0,
                  0,
                  0,
                  0,
                  0,
                  1,
                  2,
                  3,
                  2,
                  1,
                  0,
                  0,
                  0,
                  0,
                  0,
                  0,
                  0,
                  0,
                  0,
                  0,
                  0,
                  1,
                  2,
                  1,
                  0,
                  0,
                  0,
                  0,
                  0,
                  0,
                  0,
                  0,
                  0,
                  0,
                  0,
                  0,
                  0,
                  1,
                  0,
                  0,
                  0,
                  0,
                  0,
                  0,
                  0,
                  0,
                  0,
                  0,
                  0,
                  0,
                  0,
                  0,
                  0,
                  0,
                  0,
                  0,
                  0,
                  0,
                  0,
                  0,
                  0,
                  0,
                  0,
                  0,
                  0,
                  0,
                  0,
                  0,
                  0,
                  0,
                  0,
                  0,
                  0,
                  0,
                  0,
                  0,
                  0,
                  0,
                  0,
                  0,
                  0,
                  0,
                  0,
                  0,
                  0,
                  0,
                  0,
                  0,
                  0,
                  0,
                  0,
                  0,
                  0,
                  0,
                  0,
                  0,
                  0,
                  0,
                  0,
                  0,
                  0,
                  0,
                  0,
                  0,
                  0,
                  0,
                  0,
                  0,
                  0,
                  0,
                  0,
                  0,
                  0,
                  0,
                  0,
                  0,
                  0,
                  0,
                  0,
                  0
                ]
              },
              "matrix": {
                "weights": [
                  1,
                  1,
                  1,
                  1,
                  1,
                  1,
                  1,
                  1,
                  1,
                  1,
                  1,
                  1,
                  1,
                  1,
                  1,
                  1,
                  1,
                  1,
                  1,
                  1,
                  1,
                  1,
                  1,
                  1,
                  1,
                  1,
                  1,
                  1,
                  1,
                  1,
                  1,
                  1,
                  1,
                  1,
                  1,
                  1,
                  1,
                  1,
                  1,
                  1,
                  1,
                  1,
                  1,
                  1,
                  1,
                  1,
                  1,
                  1,
                  1,
                  1,
                  1,
                  1,
                  1,
                  1,
                  1,
                  1,
                  1,
                  1,
                  1,
                  1,
                  1,
                  1,
                  1,
                  1,
                  1,
                  1,
                  1,
                  1,
                  1,
                  1,
                  1,
                  1,
                  1,
                  1,
                  1,
                  1,
                  1,
                  1,
                  1,
                  1,
                  1,
                  1,
                  1,
                  1,
                  1,
                  1,
                  1,
                  1,
                  1,
                  1,
                  1,
                  1,
                  1,
                  1,
                  1,
                  1,
                  1,
                  1,
                  1,
                  1,
                  1,
                  1,
                  1,
                  1,
                  1,
                  1,
                  1,
                  1,
                  1,
                  1,
                  1,
                  1,
                  1,
                  1,
                  1,
                  1,
                  1,
                  1,
                  1,
                  1,
                  1,
                  1,
                  1,
                  1,
                  1,
                  1,
                  1,
                  1,
                  1,
                  1,
                  1,
                  1,
                  1,
                  1,
                  1,
                  1,
                  1,
                  1,
                  1,
                  1,
                  1,
                  1,
                  1,
                  1,
                  1,
                  1,
                  1,
                  1,
                  1,
                  1,
                  1,
                  1,
                  1,
                  1,
                  1,
                  1,
                  1,
                  1,
                  1,
                  1,
                  1,
                  1,
                  1,
                  1,
                  1,
                  1,
                  1,
                  1,
                  1,
                  1,
                  1,
                  1,
                  1,
                  1,
                  1,
                  1,
                  1,
                  1,
                  1,
                  1,
                  1,
                  1,
                  1,
                  1,
                  1,
                  1,
                  1,
                  1,
                  1,
                  1,
                  1,
                  1,
                  1,
                  1,
                  1,
                  1,
                  1,
                  1,
                  1,
                  1,
                  1,
                  1,
                  1,
                  1,
                  1,
                  1,
                  1,
                  1,
                  1,
                  1,
                  1,
                  1,
                  1,
                  1,
                  1,
                  1,
                  1,
                  1,
                  1,
                  1,
                  1,
                  1,
                  1,
                  1,
                  1
                ]
              }
            },
            "exposure_modes": {
              "normal": {
                "shutter": [
                  100,
                  10000,
                  30000,
                  60000,
                  66666
                ],
                "gain": [
                  1.0,
                  1.5,
                  2.0,
                  4.0,
                  8.0
                ]
              },
              "short": {
                "shutter": [
                  100,
                  5000,
                  10000,
                  20000,
                  60000
                ],
                "gain": [
                  1.0,
                  1.5,
                  2.0,
                  4.0,
                  8.0
                ]
              },
              "long": {
                "shutter": [
                  100,
                  10000,
                  30000,
                  60000,
                  90000,
                  120000
                ],
                "gain": [
                  1.0,
                  1.5,
                  2.0,
                  4.0,
                  8.0,
                  12.0
                ]
              }
            },
            "constraint_modes": {
              "normal": [
                {
                  "bound": "LOWER",
                  "q_lo": 0.98,
                  "q_hi": 1.0,
                  "y_target": [
                    0,
                    0.5,
                    1000,
                    0.5
                  ]
                }
              ],
              "highlight": [
                {
                  "bound": "LOWER",
                  "q_lo": 0.98,
                  "q_hi": 1.0,
                  "y_target": [
                    0,
                    0.5,
                    1000,
                    0.5
                  ]
                },
                {
                  "bound": "UPPER",
                  "q_lo": 0.98,
                  "q_hi": 1.0,
                  "y_target": [
                    0,
                    0.8,
                    1000,
                    0.8
                  ]
                }
              ],
              "shadows": [
                {
                  "bound": "LOWER",
                  "q_lo": 0.0,
                  "q_hi": 0.5,
                  "y_target": [
                    0,
                    0.17,
                    1000,
                    0.17
                  ]
                }
              ]
            },
            "y_target": [
              0,
              0.16,
              1000,
              0.165,
              10000,
              0.17
            ]
          }
        ]
      }
    },
    {
      "rpi.alsc": {
        "omega": 1.3,
        "n_iter": 100,
        "luminance_strength": 0.8
      }
    },
    {
      "rpi.contrast": {
        "ce_enable": 1,
        "gamma_curve": [
          0,
          0,
          512,
          2518,
          1024,
          5033,
          1536,
          7175,
          2048,
          9309,
          2560,
          10814,
          3072,
          12312,
          3584,
          13773,
          4096,
          15225,
          4608,
          16566,
          5120,
          17899,
          5632,
          19221,
          6144,
          20534,
          6656,
          21684,
          7168,
          22826,
          7680,
          24024,
          8192,
          25212,
          9216,
          27251,
          10240,
